X: 1
T: Irish Autotuner's Tune
R: reel
M: 4/4
L: 1/8
K: Amaj
|cefe ~a3f|ecBc ~A2FA|EFAB cAec|BcAB cAA2|~a3f fece|~a3f eAce|~a3f fece|afec ~A2FA|EFAB cAec|BcAB cAA2|:ceec dffd|ceec BcAB|ce~e2 faaf|bafe cBAB|ceec dffd|cABc ~A2FA|EFAB cAec|BcAB cAA2|:ceec dffd|ceec BcAB|ce~e2 faaf|bafe cBAB|ceec dffd|cABc ~A2FA|EFAB cAec|BcAB cAA2:|end